X:2236
T:Brunswick Waltz. CJF.145
M:3/8
L:1/16
Q:60
S: C.J.Fox MS, 1829/33, Beverley,E.Yorks.
R:Waltz
O:England
A:East Yorkshire
B:Kidson Coll.Mitchell Lib.M1805
Z:P J Headford 2000
K:G
(GA)|B2B2c2|d4(ge)|d2(de)(dc)|B4(GA)|B2B2c2|d4gb|a2agab|g4:||:!D2|\
c2c2D2|B2B2G2|F2FAGB|A2A2 D2|
c2c2D2|B2B2G2|GFEDEF|G4:||:!(Bc)|d2d2g2|d4(Bd)|c2c2A2|B4(Bc)|d2d2g2|d4g2
|(gf)(ed)(ef)|g4:||


